assets/images/video-icon.svg

<svg viewBox="0 0 900 900" xmlns="http://www.w3.org/2000/svg"><path d="m0 0h900v900h-900z" fill="#191919"/><path d="m486.15 306h-216.3a35.85 35.85 0 0 0 -35.85 35.85v216.3a35.85 35.85 0 0 0 35.85 35.85h216.3a35.85 35.85 0 0 0 35.85-35.85v-216.3a35.85 35.85 0 0 0 -35.85-35.85zm142.05 28.27-82.2 56.73v118l82.2 56.62c15.9 11 37.8-.22 37.8-19.35v-192.64c0-19.06-21.82-30.31-37.8-19.36z" fill="#f9f9f9"/></svg>

<svg id="Livello_1" data-name="Livello 1" xmlns="http://www.w3.org/2000/svg" viewBox="0 0 900 900"><defs><style>.cls-1{fill:#191919;}.cls-2{fill:#f9f9f9;}</style></defs><rect class="cls-1" width="900" height="900"/><path class="cls-2" d="M486.15,306H269.85A35.85,35.85,0,0,0,234,341.85v216.3A35.85,35.85,0,0,0,269.85,594h216.3A35.85,35.85,0,0,0,522,558.15V341.85A35.85,35.85,0,0,0,486.15,306ZM628.2,334.27,546,391V509l82.2,56.62c15.9,11,37.8-.22,37.8-19.35V353.63C666,334.57,644.18,323.32,628.2,334.27Z"/></svg>
